icons/ableton-light.svg

<svg xmlns="http://www.w3.org/2000/svg" width="256" height="256" fill="none"><rect width="256" height="256" fill="#F4F2ED" rx="60"/><path fill="#1F2120" d="M36 177.4c0 .9-.8 1.5-1.5 1.5H23.6c-.9 0-1.6-.6-1.6-1.5V78.6c0-.6.8-1.4 1.6-1.4h10.8c.8 0 1.5.8 1.5 1.4zm28.3 0c0 .9-.8 1.5-1.5 1.5H52c-.9 0-1.6-.6-1.6-1.5V78.6c0-.6.8-1.4 1.6-1.4h10.8c.8 0 1.5.8 1.5 1.4zm28.3 0c0 .9-.8 1.5-1.5 1.5H80.3c-.9 0-1.6-.6-1.6-1.5V78.6c0-.6.8-1.4 1.6-1.4h10.8c.8 0 1.5.8 1.5 1.4zm28.5 0c0 .9-.8 1.5-1.5 1.5h-10.8c-.9 0-1.6-.6-1.6-1.5V78.6c0-.6.8-1.4 1.6-1.4h10.8c.8 0 1.5.8 1.5 1.4zM232.5 77c.9 0 1.5.8 1.5 1.6v11.1c0 .9-.6 1.7-1.5 1.7h-96.1c-.6 0-1.4-.8-1.4-1.7V78.6c0-.8.8-1.6 1.4-1.6zm0 29.3c.9 0 1.5.8 1.5 1.6V119c0 .9-.6 1.7-1.5 1.7h-96.1c-.6 0-1.4-.8-1.4-1.7v-11.1c0-.8.8-1.6 1.4-1.6zm0 29.1c.9 0 1.5.8 1.5 1.6v11.1c0 .9-.6 1.7-1.5 1.7h-96.1c-.6 0-1.4-.8-1.4-1.7V137c0-.8.8-1.6 1.4-1.6zm0 29.1c.9 0 1.5.8 1.5 1.6v11.1c0 .9-.6 1.7-1.5 1.7h-96.1c-.6 0-1.4-.8-1.4-1.7v-11.1c0-.8.8-1.6 1.4-1.6z"/></svg>

<svg width="256" height="256" viewBox="0 0 256 256" fill="none" xmlns="http://www.w3.org/2000/svg">
<rect width="256" height="256" rx="60" fill="#F4F2ED"/>
<path d="M36 177.4C36 178.3 35.2 178.9 34.5 178.9H23.6C22.7 178.9 22 178.3 22 177.4V78.6C22 78 22.8 77.2 23.6 77.2H34.4C35.2 77.2 35.9 78 35.9 78.6L36 177.4ZM64.3 177.4C64.3 178.3 63.5 178.9 62.8 178.9H52C51.1 178.9 50.4 178.3 50.4 177.4V78.6C50.4 78 51.2 77.2 52 77.2H62.8C63.6 77.2 64.3 78 64.3 78.6V177.4ZM92.6 177.4C92.6 178.3 91.8 178.9 91.1 178.9H80.3C79.4 178.9 78.7 178.3 78.7 177.4V78.6C78.7 78 79.5 77.2 80.3 77.2H91.1C91.9 77.2 92.6 78 92.6 78.6V177.4ZM121.1 177.4C121.1 178.3 120.3 178.9 119.6 178.9H108.8C107.9 178.9 107.2 178.3 107.2 177.4V78.6C107.2 78 108 77.2 108.8 77.2H119.6C120.4 77.2 121.1 78 121.1 78.6V177.4ZM232.5 77C233.4 77 234 77.8 234 78.6V89.7C234 90.6 233.4 91.4 232.5 91.4H136.4C135.8 91.4 135 90.6 135 89.7V78.6C135 77.8 135.8 77 136.4 77H232.5ZM232.5 106.3C233.4 106.3 234 107.1 234 107.9V119C234 119.9 233.4 120.7 232.5 120.7H136.4C135.8 120.7 135 119.9 135 119V107.9C135 107.1 135.8 106.3 136.4 106.3H232.5V106.3ZM232.5 135.4C233.4 135.4 234 136.2 234 137V148.1C234 149 233.4 149.8 232.5 149.8H136.4C135.8 149.8 135 149 135 148.1V137C135 136.2 135.8 135.4 136.4 135.4H232.5ZM232.5 164.5C233.4 164.5 234 165.3 234 166.1V177.2C234 178.1 233.4 178.9 232.5 178.9H136.4C135.8 178.9 135 178.1 135 177.2V166.1C135 165.3 135.8 164.5 136.4 164.5H232.5Z" fill="#1F2120"/>
</svg>
